X: 1
T: Big John's
M: 4/4
L: 1/8
R: reel
K: Dmaj
A2FA d2AF|GEBE GEBE|D2FA d2 (3efg|1 faeg fddB:|2 faeg fddf||
a2fa afdf|gebe gebe|a2fa gfed|cdeg fddf|
a2fa afdf|gebe gebe|fgaf bged|cdeg fddB|]
